X:161
T:Tobakspolskan
R:Polska
Z:C-G Magnusson, 2008-09-29
O:Steneby, Dalsland
S:efter Olof Hansson, Steneby
B:Svenska Låtar Dalsland nr 161
M:3/4
L:1/8
Q:124
K:A
EA (3cAc (3BGB | (3AGA (3cAc (3ece | (3fdf (3geg (3egb | e'e' (3c'e'c' a2 |
EA (3cAc (3BGB | (3AGA (3cAc (3ece | (3fdf (3geg (3efg | a2 A2 z2 :|
|: ee ({d}(3c)Ac (3ece | aa ({d}(3c)Ac (3ece | ff (3dBd (3fdf | bb (3geg (3fdf |
ee ({d}(3c)Ac (3ece | aa ({d}(3c)Ac (3ABc | dd (3cAc (3BGB | A2 A,2 z2 :|

